;FLAVOR:Marlin
;TIME:11755
;Filament used: 17.2585m
;Layer height: 0.28
;MINX:69.76
;MINY:53.259
;MINZ:0.28
;MAXX:150.24
;MAXY:166.74
;MAXZ:72.8
;Generated with Cura_SteamEngine 4.13.1
M140 S55
M105
M190 S55
M104 S200
M105
M109 S200
M82 ;absolute extrusion mode
M201 X500.00 Y500.00 Z100.00 E5000.00 ;Setup machine max acceleration
M203 X500.00 Y500.00 Z10.00 E50.00 ;Setup machine max feedrate
M204 P500.00 R1000.00 T500.00 ;Setup Print/Retract/Travel acceleration
M205 X8.00 Y8.00 Z0.40 E5.00 ;Setup Jerk
M220 S100 ;Reset Feedrate
M221 S100 ;Reset Flowrate

G28 ;Home

G92 E0 ;Reset Extruder
G1 Z2.0 F3000 ;Move Z Axis up
G1 X10.1 Y20 Z0.28 F5000.0 ;Move to start position
G1 X10.1 Y200.0 Z0.28 F1500.0 E15 ;Draw the first line
G1 X10.4 Y200.0 Z0.28 F5000.0 ;Move to side a little
G1 X10.4 Y20 Z0.28 F1500.0 E30 ;Draw the second line
G92 E0 ;Reset Extruder
G1 Z2.0 F3000 ;Move Z Axis up

G92 E0
G92 E0
G1 F2700 E-5
;LAYER_COUNT:260
;LAYER:0
M107
G0 F6000 X72.334 Y57.41 Z0.28
;TYPE:SKIRT
G1 F2700 E0
G1 F1200 X72.966 Y56.712 E0.04823
G1 X73.655 Y56.069 E0.0965
G1 X74.441 Y55.456 E0.14756
G1 X74.631 Y55.321 E0.1595
G1 X75.421 Y54.809 E0.20771
G1 X76.252 Y54.365 E0.25597
G1 X77.118 Y53.994 E0.30423
G1 X78.012 Y53.697 E0.35248
G1 X78.928 Y53.477 E0.40073
G1 X79.86 Y53.335 E0.44902
G1 X80.68 Y53.277 E0.49113
G1 X81.102 Y53.265 E0.51275
G1 X81.569 Y53.26 E0.53667
G1 X138.233 Y53.259 E3.43904
G1 X139.096 Y53.27 E3.48325
G1 X140.037 Y53.323 E3.53152
G1 X140.97 Y53.456 E3.57979
G1 X141.888 Y53.668 E3.62805
G1 X142.784 Y53.956 E3.67626
G1 X143.654 Y54.32 E3.72456
G1 X144.489 Y54.756 E3.77281
G1 X145.354 Y55.31 E3.82542
G1 X145.539 Y55.441 E3.83703
G1 X146.284 Y56.018 E3.8853
G1 X146.977 Y56.655 E3.93351
G1 X147.614 Y57.35 E3.9818
G1 X148.19 Y58.095 E4.03004
G1 X148.7 Y58.887 E4.07829
G1 X149.142 Y59.72 E4.12659
G1 X149.511 Y60.586 E4.1748
G1 X149.806 Y61.481 E4.22307
G1 X150.023 Y62.398 E4.27134
G1 X150.2 Y63.769 E4.34215
G1 X150.213 Y63.966 E4.35226
G1 X150.236 Y64.561 E4.38276
G1 X150.24 Y64.942 E4.40227
G1 X150.239 Y154.952 E9.01264
G1 X150.229 Y155.653 E9.04855
G1 X150.175 Y156.594 E9.09683
G1 X150.042 Y157.527 E9.1451
G1 X149.831 Y158.445 E9.19335
G1 X149.542 Y159.341 E9.24157
G1 X149.179 Y160.211 E9.28985
G1 X148.742 Y161.046 E9.33812
G1 X148.237 Y161.841 E9.38637
G1 X147.666 Y162.59 E9.43461
G1 X147.034 Y163.289 E9.48287
G1 X146.344 Y163.931 E9.53115
G1 X145.537 Y164.559 E9.58353
G1 X145.346 Y164.694 E9.59551
G1 X144.554 Y165.205 E9.64378
G1 X143.722 Y165.647 E9.69204
G1 X142.855 Y166.016 E9.7403
G1 X141.96 Y166.311 E9.78857
G1 X141.044 Y166.529 E9.8368
G1 X140.112 Y166.668 E9.88506
G1 X139.322 Y166.723 E9.92563
G1 X138.898 Y166.735 E9.94735
G1 X138.431 Y166.74 E9.97127
G1 X81.61 Y166.74 E12.88168
G1 X80.904 Y166.73 E12.91785
G1 X79.963 Y166.677 E12.96612
G1 X79.03 Y166.544 E13.01439
G1 X78.112 Y166.332 E13.06265
G1 X77.216 Y166.044 E13.11086
G1 X76.346 Y165.68 E13.15916
G1 X75.511 Y165.244 E13.20741
G1 X74.623 Y164.673 E13.26149
G1 X74.432 Y164.537 E13.2735
G1 X73.688 Y163.958 E13.32178
G1 X72.996 Y163.319 E13.37003
G1 X72.361 Y162.623 E13.41829
G1 X71.787 Y161.876 E13.46654
G1 X71.279 Y161.083 E13.51478
G1 X70.84 Y160.249 E13.56305
G1 X70.473 Y159.382 E13.61128
G1 X70.181 Y158.486 E13.65954
G1 X69.965 Y157.569 E13.7078
G1 X69.829 Y156.636 E13.75609
G1 X69.776 Y155.868 E13.79552
G1 X69.768 Y155.63 E13.80772
G1 X69.762 Y155.336 E13.82278
G1 X69.76 Y155.055 E13.83718
G1 X69.761 Y65.049 E18.44734
G1 X69.771 Y64.347 E18.4833
G1 X69.825 Y63.406 E18.53158
G1 X69.957 Y62.474 E18.57979
G1 X70.169 Y61.556 E18.62805
G1 X70.458 Y60.659 E18.67632
G1 X70.821 Y59.79 E18.72456
G1 X71.257 Y58.954 E18.77285
G1 X71.763 Y58.159 E18.82112
G1 X72.334 Y57.41 E18.86936
G0 F6000 X72.767 Y57.578
G1 F1200 X73.397 Y56.903 E18.91665
G1 X74.083 Y56.285 E18.96395
G1 X74.696 Y55.815 E19.00351
G1 X74.886 Y55.68 E19.01545
G1 X75.661 Y55.179 E19.06272
G1 X76.476 Y54.746 E19.10999
G1 X77.326 Y54.385 E19.15729
G1 X78.204 Y54.1 E19.20457
G1 X79.104 Y53.891 E19.2519
G1 X80.018 Y53.761 E19.29919
G1 X80.695 Y53.716 E19.33394
G1 X81.107 Y53.705 E19.35505
G1 X81.569 Y53.7 E19.37871
G1 X138.233 Y53.699 E22.28108
G1 X139.09 Y53.71 E22.32498
G1 X140.012 Y53.763 E22.37228
G1 X140.925 Y53.896 E22.41954
G1 X141.824 Y54.107 E22.46684
G1 X142.701 Y54.395 E22.51412
G1 X143.55 Y54.758 E22.56141
G1 X144.365 Y55.193 E22.60873
G1 X145.099 Y55.669 E22.65354
G1 X145.284 Y55.8 E22.66515
G1 X146.014 Y56.366 E22.71247
G1 X146.692 Y56.993 E22.75977
G1 X147.313 Y57.676 E22.80705
G1 X147.873 Y58.41 E22.85434
G1 X148.367 Y59.19 E22.90163
G1 X148.792 Y60.009 E22.94889
G1 X149.144 Y60.863 E22.9962
G1 X149.421 Y61.743 E23.04346
G1 X149.621 Y62.645 E23.09078
G1 X149.761 Y63.798 E23.15027
G1 X149.774 Y63.995 E23.16038
G1 X149.796 Y64.566 E23.18965
G1 X149.8 Y64.942 E23.20891
G1 X149.799 Y154.946 E27.81897
G1 X149.789 Y155.647 E27.85488
G1 X149.736 Y156.569 E27.90218
G1 X149.603 Y157.482 E27.94944
G1 X149.392 Y158.381 E27.99674
G1 X149.104 Y159.258 E28.04402
G1 X148.741 Y160.107 E28.09132
G1 X148.305 Y160.921 E28.13861
G1 X147.801 Y161.695 E28.18592
G1 X147.232 Y162.422 E28.23321
G1 X146.603 Y163.097 E28.28047
G1 X145.917 Y163.715 E28.32776
G1 X145.283 Y164.2 E28.36865
G1 X145.092 Y164.335 E28.38063
G1 X144.315 Y164.835 E28.42795
G1 X143.499 Y165.266 E28.47522
G1 X142.648 Y165.624 E28.52251
G1 X141.769 Y165.907 E28.56981
G1 X140.869 Y166.114 E28.61711
G1 X139.955 Y166.241 E28.66438
G1 X139.306 Y166.284 E28.69769
G1 X138.893 Y166.295 E28.71885
G1 X138.431 Y166.3 E28.74252
G1 X81.616 Y166.3 E31.65262
G1 X80.91 Y166.29 E31.68878
G1 X79.988 Y166.237 E31.73609
G1 X79.075 Y166.104 E31.78334
G1 X78.176 Y165.893 E31.83064
G1 X77.299 Y165.605 E31.87792
G1 X76.45 Y165.242 E31.92522
G1 X75.635 Y164.807 E31.97254
G1 X74.878 Y164.315 E32.01878
G1 X74.687 Y164.179 E32.03079
G1 X73.959 Y163.611 E32.07809
G1 X73.282 Y162.983 E32.12538
G1 X72.663 Y162.298 E32.17267
G1 X72.105 Y161.562 E32.21998
G1 X71.613 Y160.781 E32.26726
G1 X71.19 Y159.96 E32.31457
G1 X70.84 Y159.106 E32.36184
G1 X70.565 Y158.225 E32.40911
G1 X70.368 Y157.323 E32.4564
G1 X70.249 Y156.407 E32.50371
G1 X70.216 Y155.853 E32.53214
G1 X70.208 Y155.615 E32.54434
G1 X70.202 Y155.333 E32.55879
G1 X70.2 Y155.052 E32.57318
G1 X70.201 Y65.055 E37.18288
G1 X70.211 Y64.353 E37.21884
G1 X70.264 Y63.431 E37.26614
G1 X70.397 Y62.518 E37.3134
G1 X70.608 Y61.619 E37.3607
G1 X70.896 Y60.742 E37.40798
G1 X71.259 Y59.893 E37.45528
G1 X71.694 Y59.079 E37.50255
G1 X72.198 Y58.305 E37.54986
G1 X72.767 Y57.578 E37.59714
G0 F6000 X73.201 Y57.75
G1 F1200 X73.828 Y57.099 E37.64344
G1 X74.51 Y56.505 E37.68976
G1 X74.951 Y56.174 E37.71801
G1 X75.141 Y56.039 E37.72995
G1 X75.9 Y55.548 E37.77625
G1 X76.7 Y55.127 E37.82255
G1 X77.533 Y54.778 E37.86881
G1 X78.395 Y54.504 E37.91514
G1 X79.277 Y54.307 E37.96143
G1 X80.173 Y54.189 E38.00772
G1 X80.71 Y54.156 E38.03528
G1 X81.113 Y54.145 E38.05593
G1 X81.569 Y54.14 E38.07929
G1 X138.233 Y54.139 E40.98165
G1 X139.084 Y54.15 E41.02524
G1 X139.986 Y54.203 E41.07152
G1 X140.88 Y54.335 E41.11781
G1 X141.76 Y54.546 E41.16416
G1 X142.617 Y54.834 E41.21047
G1 X143.445 Y55.196 E41.25676
G1 X144.238 Y55.63 E41.30306
G1 X144.845 Y56.028 E41.34024
G1 X145.03 Y56.159 E41.35185
G1 X145.744 Y56.714 E41.39817
G1 X146.406 Y57.329 E41.44445
G1 X147.011 Y58.001 E41.49077
G1 X147.555 Y58.723 E41.53707
G1 X148.032 Y59.491 E41.58338
G1 X148.44 Y60.298 E41.6297
G1 X148.775 Y61.137 E41.67597
G1 X149.034 Y62.003 E41.72227
G1 X149.216 Y62.889 E41.7686
G1 X149.322 Y63.827 E41.81695
G1 X149.335 Y64.024 E41.82706
G1 X149.356 Y64.572 E41.85515
G1 X149.36 Y64.942 E41.8741
G1 X149.359 Y154.94 E46.48385
G1 X149.349 Y155.641 E46.51976
G1 X149.296 Y156.543 E46.56604
G1 X149.164 Y157.437 E46.61233
G1 X148.953 Y158.317 E46.65868
G1 X148.665 Y159.173 E46.70494
G1 X148.303 Y160.002 E46.75128
G1 X147.869 Y160.795 E46.79758
G1 X147.366 Y161.546 E46.84388
G1 X146.799 Y162.25 E46.89018
G1 X146.172 Y162.901 E46.93647
G1 X145.49 Y163.495 E46.9828
G1 X145.029 Y163.841 E47.01232
G1 X144.838 Y163.976 E47.0243
G1 X144.077 Y164.464 E47.07061
G1 X143.277 Y164.884 E47.11689
G1 X142.442 Y165.231 E47.1632
G1 X141.58 Y165.503 E47.2095
G1 X140.697 Y165.698 E47.25582
G1 X139.8 Y165.814 E47.30215
G1 X139.291 Y165.844 E47.32826
G1 X138.887 Y165.855 E47.34896
G1 X138.431 Y165.86 E47.37232
G1 X81.622 Y165.86 E50.28211
G1 X80.916 Y165.85 E50.31828
G1 X80.014 Y165.797 E50.36456
G1 X79.12 Y165.665 E50.41085
G1 X78.24 Y165.454 E50.4572
G1 X77.383 Y165.166 E50.50351
G1 X76.555 Y164.804 E50.54979
G1 X75.762 Y164.37 E50.5961
G1 X75.133 Y163.956 E50.63467
G1 X74.942 Y163.82 E50.64668
G1 X74.23 Y163.264 E50.69295
G1 X73.569 Y162.647 E50.73926
G1 X72.966 Y161.973 E50.78558
G1 X72.424 Y161.25 E50.83187
G1 X71.949 Y160.481 E50.87816
G1 X71.543 Y159.673 E50.92448
G1 X71.21 Y158.832 E50.97081
G1 X70.953 Y157.966 E51.01708
G1 X70.774 Y157.08 E51.06338
G1 X70.656 Y155.838 E51.12728
G1 X70.648 Y155.6 E51.13948
G1 X70.642 Y155.33 E51.15331
G1 X70.64 Y155.049 E51.1677
G1 X70.641 Y65.061 E55.77694
G1 X70.651 Y64.359 E55.81291
G1 X70.704 Y63.457 E55.85919
G1 X70.836 Y62.563 E55.90547
G1 X71.047 Y61.684 E55.95178
G1 X71.335 Y60.827 E55.99808
G1 X71.697 Y59.999 E56.04437
G1 X72.131 Y59.206 E56.09067
G1 X72.634 Y58.454 E56.13701
G1 X73.201 Y57.75 E56.18331
G1 F2700 E51.18331
;MESH:stand.stl
G0 F6000 X80.628 Y63.85
G0 X81.3 Y64.8
G0 X81.52 Y154.981
;TYPE:WALL-INNER
G1 F2700 E56.18331
G1 F1200 X81.52 Y65.02 E60.79117
G1 X138.48 Y65.019 E63.7087
G1 X138.48 Y154.98 E68.31655
G1 X81.52 Y154.981 E71.23408
G0 F6000 X81.08 Y155.386
;TYPE:WALL-OUTER
G1 F1200 X81.08 Y64.614 E75.88348
G1 X81.128 Y64.58 E75.88649
G1 X138.87 Y64.579 E78.84407
G1 X138.92 Y64.614 E78.8472
G1 X138.92 Y155.386 E83.49659
G1 X138.872 Y155.42 E83.49961
G1 X81.13 Y155.421 E86.45719
G1 X81.08 Y155.386 E86.46031
G0 F6000 X81.35 Y155.151
G0 X81.63 Y154.551
G0 X81.95 Y154.551
;TYPE:SKIN
G1 F1200 X81.95 Y65.45 E91.02412
G1 X138.05 Y65.449 E93.8976
G1 X138.05 Y154.55 E98.4614
G1 X81.95 Y154.551 E101.33488
G1 F2700 E96.33488
G0 F6000 X81.63 Y154.551
G0 X81.702 Y154.799
G0 X138.298 Y154.798
G0 X138.37 Y66.31
G1 F2700 E101.33488
G0 F6000 X137.869 Y66.31
G1 F1200 X137.188 Y65.629 E101.38421
G0 F6000 X136.566 Y65.629
G1 F1200 X137.869 Y66.932 E101.47859
G0 F6000 X137.869 Y67.554
G1 F1200 X135.944 Y65.629 E101.61804
G0 F6000 X135.321 Y65.629
G1 F1200 X137.869 Y68.177 E101.80261
G0 F6000 X137.869 Y68.799
G1 F1200 X134.699 Y65.629 E102.03223
G0 F6000 X134.077 Y65.629
G1 F1200 X137.869 Y69.421 E102.30691
G0 F6000 X137.869 Y70.043
G1 F1200 X133.455 Y65.629 E102.62665
G0 F6000 X132.832 Y65.629
G1 F1200 X137.869 Y70.666 E102.99151
G0 F6000 X137.869 Y71.288
G1 F1200 X132.21 Y65.629 E103.40143
G0 F6000 X131.588 Y65.629
G1 F1200 X137.869 Y71.91 E103.85641
G0 F6000 X137.869 Y72.532
G1 F1200 X130.966 Y65.629 E104.35644
G0 F6000 X130.343 Y65.629
G1 F1200 X137.869 Y73.155 E104.9016
G0 F6000 X137.869 Y73.777
G1 F1200 X129.721 Y65.629 E105.49182
G0 F6000 X129.099 Y65.629
G1 F1200 X137.869 Y74.399 E106.12709
G0 F6000 X137.869 Y75.021
G1 F1200 X128.477 Y65.629 E106.80741
G0 F6000 X127.854 Y65.629
G1 F1200 X137.869 Y75.644 E107.53287
G0 F6000 X137.869 Y76.266
G1 F1200 X127.232 Y65.629 E108.30338
G0 F6000 X126.61 Y65.629
G1 F1200 X137.869 Y76.888 E109.11895
G0 F6000 X137.869 Y77.51
G1 F1200 X125.988 Y65.629 E109.97957
G0 F6000 X125.365 Y65.629
G1 F1200 X137.869 Y78.133 E110.88532
G0 F6000 X137.869 Y78.755
G1 F1200 X124.743 Y65.629 E111.83613
G0 F6000 X124.121 Y65.629
G1 F1200 X137.869 Y79.377 E112.83199
G0 F6000 X137.869 Y79.999
G1 F1200 X123.499 Y65.629 E113.87291
G0 F6000 X122.876 Y65.629
G1 F1200 X137.869 Y80.622 E114.95895
G0 F6000 X137.869 Y81.244
G1 F1200 X122.254 Y65.629 E116.09006
G0 F6000 X121.632 Y65.629
G1 F1200 X137.869 Y81.866 E117.26621
G0 F6000 X137.869 Y82.488
G1 F1200 X121.01 Y65.629 E118.48743
G0 F6000 X120.387 Y65.629
G1 F1200 X137.869 Y83.111 E119.75377
G0 F6000 X137.869 Y83.733
G1 F1200 X119.765 Y65.629 E121.06516
G0 F6000 X119.143 Y65.629
G1 F1200 X137.869 Y84.355 E122.42162
G0 F6000 X137.869 Y84.977
G1 F1200 X118.52 Y65.629 E123.82316
G0 F6000 X117.898 Y65.629
G1 F1200 X137.869 Y85.6 E125.2698
G0 F6000 X137.869 Y86.222
G1 F1200 X117.276 Y65.629 E126.76149
G0 F6000 X116.654 Y65.629
G1 F1200 X137.869 Y86.844 E128.29824
G0 F6000 X137.869 Y87.466
G1 F1200 X116.031 Y65.629 E129.88008
G0 F6000 X115.409 Y65.629
G1 F1200 X137.869 Y88.089 E131.50701
G0 F6000 X137.869 Y88.711
G1 F1200 X114.787 Y65.629 E133.179
G0 F6000 X114.165 Y65.629
G1 F1200 X137.869 Y89.333 E134.89604
G0 F6000 X137.869 Y89.956
G1 F1200 X113.542 Y65.629 E136.65822
G0 F6000 X112.92 Y65.629
G1 F1200 X137.869 Y90.578 E138.46544
G0 F6000 X137.869 Y91.2
G1 F1200 X112.298 Y65.629 E140.31773
G0 F6000 X111.676 Y65.629
G1 F1200 X137.869 Y91.822 E142.21507
G0 F6000 X137.869 Y92.445
G1 F1200 X111.053 Y65.629 E144.15753
G0 F6000 X110.431 Y65.629
G1 F1200 X137.869 Y93.067 E146.14506
G0 F6000 X137.869 Y93.689
G1 F1200 X109.81 Y65.63 E148.17756
G0 F6000 X109.187 Y65.63
G1 F1200 X137.869 Y94.311 E150.25516
G0 F6000 X137.869 Y94.934
G1 F1200 X108.565 Y65.63 E152.37785
G0 F6000 X107.943 Y65.63
G1 F1200 X137.869 Y95.556 E154.5456
G0 F6000 X137.869 Y96.178
G1 F1200 X107.321 Y65.63 E156.7584
G0 F6000 X106.698 Y65.63
G1 F1200 X137.869 Y96.8 E159.01629
G0 F6000 X137.869 Y97.423
G1 F1200 X106.076 Y65.63 E161.31928
G0 F6000 X105.454 Y65.63
G1 F1200 X137.869 Y98.045 E163.66732
G0 F6000 X137.869 Y98.667
G1 F1200 X104.832 Y65.63 E166.06042
G0 F6000 X104.209 Y65.63
G1 F1200 X137.869 Y99.289 E168.49861
G0 F6000 X137.869 Y99.912
G1 F1200 X103.587 Y65.63 E170.98189
G0 F6000 X102.965 Y65.63
G1 F1200 X137.869 Y100.534 E173.51023
G0 F6000 X137.869 Y101.156
G1 F1200 X102.343 Y65.63 E176.08362
G0 F6000 X101.72 Y65.63
G1 F1200 X137.869 Y101.778 E178.7021
G0 F6000 X137.869 Y102.401
G1 F1200 X101.098 Y65.63 E181.36568
G0 F6000 X100.476 Y65.63
G1 F1200 X137.869 Y103.023 E184.07431
G0 F6000 X137.869 Y103.645
G1 F1200 X99.854 Y65.63 E186.828
G0 F6000 X99.231 Y65.63
G1 F1200 X137.869 Y104.267 E189.62678
G0 F6000 X137.869 Y104.89
G1 F1200 X98.609 Y65.63 E192.47065
G0 F6000 X97.987 Y65.63
G1 F1200 X137.869 Y105.512 E195.35958
G0 F6000 X137.869 Y106.134
G1 F1200 X97.365 Y65.63 E198.29356
G0 F6000 X96.742 Y65.63
G1 F1200 X137.869 Y106.756 E201.27264
G0 F6000 X137.869 Y107.379
G1 F1200 X96.12 Y65.63 E204.2968
G0 F6000 X95.498 Y65.63
G1 F1200 X137.869 Y108.001 E207.36603
G0 F6000 X137.869 Y108.623
G1 F1200 X94.876 Y65.63 E210.48031
G0 F6000 X94.253 Y65.63
G1 F1200 X137.869 Y109.245 E213.63968
G0 F6000 X137.869 Y109.868
G1 F1200 X93.631 Y65.63 E216.84414
G0 F6000 X93.009 Y65.63
G1 F1200 X137.869 Y110.49 E220.09366
G0 F6000 X137.869 Y111.112
G1 F1200 X92.387 Y65.63 E223.38823
G0 F6000 X91.764 Y65.63
G1 F1200 X137.869 Y111.734 E226.7279
G0 F6000 X137.869 Y112.357
G1 F1200 X91.142 Y65.63 E230.11266
G0 F6000 X90.52 Y65.63
G1 F1200 X137.869 Y112.979 E233.54247
G0 F6000 X137.869 Y113.601
G1 F1200 X89.898 Y65.63 E237.01734
G0 F6000 X89.275 Y65.63
G1 F1200 X137.869 Y114.223 E240.5373
G0 F6000 X137.869 Y114.846
G1 F1200 X88.653 Y65.63 E244.10235
G0 F6000 X88.031 Y65.63
G1 F1200 X137.869 Y115.468 E247.71246
G0 F6000 X137.869 Y116.09
G1 F1200 X87.409 Y65.63 E251.36763
G0 F6000 X86.786 Y65.63
G1 F1200 X137.869 Y116.712 E255.06788
G0 F6000 X137.869 Y117.335
G1 F1200 X86.164 Y65.63 E258.81323
G0 F6000 X85.542 Y65.63
G1 F1200 X137.869 Y117.957 E262.60364
G0 F6000 X137.869 Y118.579
G1 F1200 X84.919 Y65.63 E266.43913
G0 F6000 X84.297 Y65.63
G1 F1200 X137.869 Y119.201 E270.31969
G0 F6000 X137.869 Y119.824
G1 F1200 X83.675 Y65.63 E274.24533
G0 F6000 X83.053 Y65.63
G1 F1200 X137.869 Y120.446 E278.21603
G0 F6000 X137.869 Y121.068
G1 F1200 X82.43 Y65.63 E282.23182
G0 F6000 X82.129 Y65.951
G1 F1200 X137.869 Y121.69 E286.26942
G0 F6000 X137.869 Y122.313
G1 F1200 X82.129 Y66.573 E290.30705
G0 F6000 X82.129 Y67.195
G1 F1200 X137.869 Y122.935 E294.34468
G0 F6000 X137.869 Y123.557
G1 F1200 X82.129 Y67.817 E298.38231
G0 F6000 X82.129 Y68.44
G1 F1200 X137.869 Y124.179 E302.41991
G0 F6000 X137.869 Y124.802
G1 F1200 X82.129 Y69.062 E306.45754
